X:1
T:E minor                        Jacob Kimball, 1793
T:John Gambold, 1742                55. 65.
T:Edinburgh
T:Transcribed from Kimball's Rural Harmony, 1793.
%%score [ 1 2 3 4 ]
L:1/8
Q:1/4=80
M:2/4
K:G
V:1 treble nm="Tr." snm="Tr."
V:2 treble nm="C." snm="C."
V:3 treble-8 nm="T." snm="T."
V:4 bass nm="B." snm="B."
V:1
"^4. My    soul,  don't  de — lay,     He   calls  thee   a  —  way!                                                     Rise,  fol — low  thy  Sa  — vior,""^3. The  souls  that  be — lieve,   In    pa — ra  —  dise    live:                                                      And   me     in   that  num—ber,""^1. O      tell    me   no    more    Of    this  world's  vain  store;                                                   The  time  for  such   tri — fles,""^2. A      coun—try  I've   found,  Where  true  joys  a — bound;                                                  To    dwell  I'm  de—ter—mined," B2 | %1
 G2 FG | F2 FF | GA B2 | B2 z2 | z4 | z2 z e | Be ^de | B2 B | B | GA BB | d2 dd | B2 BA | B2 z B | %14
 BA Gc | B2 BB | GA Be | ^d2 ec | B4 | B3 B | B4- | B4 |] %22
V:2
 E2 | E2 DD | D2 ^DD | E2 E2 | ^D2 z2 | z4 | z4 | z4 | z2 z | %9
"^1.  The   time    for  such  tri  —  fles   With  me  now  is    o'er.    The    time  for  such    tri — fles,  The  time   for   such     tri —fles  with  me    now  is       o'er.""^3.  And    me       in   that   num — ber,  Will  Je—sus  re—ceive.   And    me      in   that   num — ber,   And  me    in    that    num—ber   Will  Je —  sus   re — ceive.""^2.  To      dwell   I'm  de — ter — mined, On that happy ground.    To      dwell  I'm  de — ter —mined, To   dwell  I'm    de  — ter—mined On  that   hap— py  ground.""^4.  Rise,  fol  —  low  thy    Sa  —  vior,  And  bless the glad  day.   Rise,  fol  — low  thy   Sa   —  vior, Rise, fol — low  thy    Sa —  vior,   And  bless  the  glad   day.\n" G | %10
 G2 GG | A2 FF | D2 DD | D2 z G | GF EE | ^D2 DE | E2 E A/G/ | F2 GE | E4 | ^D3 D | E4- | E4 |] %22
V:3
"^1. O      tell    me   no    more    Of    this  world's  vain  store;   The  time  for  such   tri — fles,""^2. A      coun—try  I've   found,  Where  true  joys  a — bound;  To    dwell  I'm  de—ter—mined,""^3. The  souls  that  be — lieve,   In    pa — ra  —  dise    live:      And   me     in   that  num—ber,""^4. My    soul,  don't  de — lay,     He   calls  thee   a  —  way!     Rise,  fol — low  thy  Sa  — vior," E2 | %1
 B2 AG | A2 BB | BA G2 | F2 z F | GA B^d | e2 e z | z4 | z2 z | B | BA GG | FG AA | G2 GF | G2 z2 | %14
 z4 | z2 z B | BA Gc | B2 Be | G4 | F3 F | E4- | E4 |] %22
V:4
 E,2 | E,2 F,G, | D,2 B,,B,, | E,2 E,2 | B,,2 z2 | z4 | z4 | z4 | z2 z | %9
"^_______________________________________________________\nEdited by B. C. Johnston, 2017\n   1. Grace notes ignored in measures 5 (C, T), 15 (Tr, C), 17 (Tr, T), and 19 (C, T).\n   2. The last four measures converted to 2:4 time from the original two measures of 4:4 time; notes and their values as written." G, | %10
 G,2 G,G, | D,2 D,D, | D,2 D,D, | G,,2 z2 | z4 | z2 z E, | E,2 E,A,, | B,,2 E,A,, | B,,4 | %19
 B,,3 B,, | ([E,,-E,]4 | [E,,E,]4) |] %22

